X:28
T:Funney Eye. WHG.028
R:reel
S:W.H.Giles MS,Bampton,Oxfordshire,1839p26
O:England
H:donated by Mrs W.R.Kettlewell to VWML,Apr 1927.
A:Bampton, Oxfordshire
N:Sadly, this seems to be all.
Z:PJHeadford – VMP 2009
M:2/4
L:1/16
Q:1/4=140
K:G
|:G2FE DFG2|A2BA GFED|G2FE DFGA|BGAF G4:|
|:Bcd2 efg2|dcBA GFED|” music runs out”yyyyy|

